!!!SOCIAL_FUNCTION:	songs for little children
!!!PDT:	1939
!!!OTL: No_115_"How_Tiny_You_Are".krn
!!!LANG: Non-Tone
!!!LING_GROUP: Wakashan
!!!REG: Pacific Northwest
**kern
*staff1
=1-
*clefF4
*k[f#]
*M3/4
8d\L
16e\L
16e\JJ
8.d\L
16d\Jk
16B\LL
16A\
16G\
32G\JJk
32r
=2||
*M2/4
4A\
8.d\L
16e\Jk
=3
8.d\L
16B\Jk
12B\L
12A\
24G\Jk
24r
=4
4B\
8.A\L
16d\Jk
=5
8.B\L
16B\Jk
12B\L
12A\
24G\Jk
24r
=6
4B\
8A\L
16B\L
16A\JJ
=7
12G\L
12E\
12D\J
8D\
8r
=8
4E\
12A\L
12A\
12F#\J
=9
8G\L
8E\J
8D\
8r
=10
4E\
8.G\L
16E\Jk
=11
8.D\L
16D\Jk
4D\
=12
2D\
==
*-
